fixtures/export/phase-c/media/warm-strong-lut.cube
TITLE "Vela fixture warm-strong LUT (preview smoke)"
LUT_3D_SIZE 4
DOMAIN_MIN 0.0 0.0 0.0
DOMAIN_MAX 1.0 1.0 1.0
0.150000 0.000000 0.000000
0.550000 0.026667 0.000000
0.950000 0.053333 0.000000
1.000000 0.080000 0.000000
0.150000 0.306667 0.000000
0.550000 0.333333 0.000000
0.950000 0.360000 0.000000
1.000000 0.386667 0.000000
0.150000 0.613333 0.000000
0.550000 0.640000 0.000000
0.950000 0.666667 0.000000
1.000000 0.693333 0.000000
0.150000 0.920000 0.000000
0.550000 0.946667 0.000000
0.950000 0.973333 0.000000
1.000000 1.000000 0.000000
0.150000 0.000000 0.166667
0.550000 0.026667 0.166667
0.950000 0.053333 0.166667
1.000000 0.080000 0.166667
0.150000 0.306667 0.166667
0.550000 0.333333 0.166667
0.950000 0.360000 0.166667
1.000000 0.386667 0.166667
0.150000 0.613333 0.166667
0.550000 0.640000 0.166667
0.950000 0.666667 0.166667
1.000000 0.693333 0.166667
0.150000 0.920000 0.166667
0.550000 0.946667 0.166667
0.950000 0.973333 0.166667
1.000000 1.000000 0.166667
0.150000 0.000000 0.333333
0.550000 0.026667 0.333333
0.950000 0.053333 0.333333
1.000000 0.080000 0.333333
0.150000 0.306667 0.333333
0.550000 0.333333 0.333333
0.950000 0.360000 0.333333
1.000000 0.386667 0.333333
0.150000 0.613333 0.333333
0.550000 0.640000 0.333333
0.950000 0.666667 0.333333
1.000000 0.693333 0.333333
0.150000 0.920000 0.333333
0.550000 0.946667 0.333333
0.950000 0.973333 0.333333
1.000000 1.000000 0.333333
0.150000 0.000000 0.500000
0.550000 0.026667 0.500000
0.950000 0.053333 0.500000
1.000000 0.080000 0.500000
0.150000 0.306667 0.500000
0.550000 0.333333 0.500000
0.950000 0.360000 0.500000
1.000000 0.386667 0.500000
0.150000 0.613333 0.500000
0.550000 0.640000 0.500000
0.950000 0.666667 0.500000
1.000000 0.693333 0.500000
0.150000 0.920000 0.500000
0.550000 0.946667 0.500000
0.950000 0.973333 0.500000
1.000000 1.000000 0.500000
